icons/jinja.svg

<svg viewBox="0 0 383 322" xmlns="http://www.w3.org/2000/svg"><path d="m191.5 19.54c-126.5-.1-191.5-19.54-191.5-19.54 0 35.68 22.11 50.13 22.11 50.13h15.08l14.08 17.87h39.73v39.08h-40v22.92h40v81.56c0 40.77-14 110.44-14 110.44h56s-15-89.21-15-110.45v-81.55h147v81.56c0 21.23-15 110.44-15 110.44h56s-14-69.67-14-110.45v-81.55h40v-22.95h-40v-39.05h39.73l14.08-17.84h15.08s22.11-14.48 22.11-50.16c0 0-65 19.44-191.5 19.54zm73.5 87.51h-147v-39.05h147z"/></svg>

<svg viewBox="0 0 383 322" xmlns="http://www.w3.org/2000/svg"><path d="M191.5 19.54C65 19.44 0 0 0 0c0 35.68 22.11 50.13 22.11 50.13h15.08L51.27 68H91v39.08H51V130h40v81.56C91 252.33 77 322 77 322h56s-15-89.21-15-110.45V130h147v81.56C265 232.79 250 322 250 322h56s-14-69.67-14-110.45V130h40v-22.95h-40V68h39.73l14.08-17.84h15.08S383 35.68 383 0c0 0-65 19.44-191.5 19.54zm73.5 87.51H118V68h147z"/></svg>
